X: 145
M: C
L: 1/16
K: D
[|\
d4 (c2B2) {B}A4 (G2F2) | G4 (A3B/=c/) B4 A4 |
d4 (e3f) g4 (f3e) | {e}f4 (defd) (c3B) A4 |
g4 (f3g) {f}e2 (f2d2) | {d}c4 (dfef) g4 (f2e2) |
d4 (d3B) A4 (D3G) | F4 (TE3D/E/) D8 | {f}g4 (f3g)
{f}e4 (f2d2) | A4 (Te3d/e/) d8 |]

